X:479
T:College Hornpipe. RH.479
R:.hornpipe
S:Rev.R.Harrison’s MS,c1815,Cumbria
N:Abbreviated to “Col. ” in MS.
O:England
A:Temple Sowerby,Cumbria
Z:vmp.Simon Wilson. Review PJH, 2008.
M:4/4
L:1/8
Q:2/4=90
K:D
fe|d2D2 D2GE|D2d2 d2fd|e2E2 E2GE|D2a2 a2bc’|!
d’c’ba bagf|egfe dcBA|Bcde efge|f2d2 d2:|!
|:AGFA dAFA|dAc2 G2G2|Eeed ceed|c2A2 A2fg|!
b2bg bgfa|gfed dcBA|Bcde efge|f2d2 d2:|

